X: 90
T: THE BURNT OLD MAN
B: O'Neill's 90
M: 6/8
L: 1/8
Z: Transcribed by John Chambers <jc@trillian.mit.edu>
N: "Moderate"
N: "Collected by F.o'Neill"
N: 1st Setting.
K:D
D \
| (">"DEF) (AFE) | (">"DEF) (TF2E) | (">"DEF) (BAF) | AFE (TE2F) \
| DEF AFE | (~FEF) (~dcd) | (edB) (TBAF) | (AFE) E2 :|
|| F \
| .A.F.F .d.F.F | .A.F.F.(~F2G) | AFF dcd | eEE E2F \
| (DEF) (AFE) | (~FEF) (~dcd) | edB (TBAF) | AFE E2 ||


